svg/fluentui-system-icons/ic_fluent_timer_10_24_filled.svg

<svg width="24" height="24" viewBox="0 0 24 24" fill="none" xmlns="http://www.w3.org/2000/svg">
<path d="M12 5C16.1986 5 19.6862 8.04419 20.3761 12.0458C20.1718 12.0156 19.9627 12 19.75 12C18.1266 12 16.7157 12.9103 16 14.2482V13.75C16 13.1875 15.7296 12.6592 15.2732 12.3303C14.8169 12.0014 14.2303 11.9119 13.6966 12.0898L12.75 12.4053V8.75L12.7432 8.64823C12.6935 8.28215 12.3797 8 12 8C11.6203 8 11.3065 8.28215 11.2568 8.64823L11.25 8.75V13.25L11.256 13.3387C10.9973 13.7633 10.9203 14.2948 11.0898 14.8034C11.3062 15.4525 11.8661 15.8904 12.5 15.9824V21.9855C12.3346 21.9951 12.1678 22 12 22C7.30558 22 3.5 18.1944 3.5 13.5C3.5 8.80558 7.30558 5 12 5ZM19.1704 5.1226L19.2517 5.18424L20.4008 6.18424C20.7132 6.45617 20.7461 6.9299 20.4742 7.24236C20.2249 7.52878 19.8061 7.58026 19.4973 7.3774L19.416 7.31576L18.267 6.31576C17.9545 6.04383 17.9217 5.5701 18.1936 5.25764C18.4428 4.97122 18.8617 4.91974 19.1704 5.1226ZM14.25 2.5C14.6642 2.5 15 2.83579 15 3.25C15 3.6297 14.7178 3.94349 14.3518 3.99315L14.25 4H9.75C9.33579 4 9 3.66421 9 3.25C9 2.8703 9.28215 2.55651 9.64823 2.50685L9.75 2.5H14.25ZM14.6885 13.1416C14.8841 13.2825 15 13.5089 15 13.75V22.25C15 22.6642 14.6642 23 14.25 23C13.8358 23 13.5 22.6642 13.5 22.25V14.7906L12.9872 14.9615C12.5942 15.0925 12.1695 14.8801 12.0385 14.4872C11.9075 14.0942 12.1199 13.6695 12.5128 13.5385L14.0128 13.0385C14.2415 12.9623 14.493 13.0006 14.6885 13.1416ZM16.5 16.25C16.5 14.4551 17.9551 13 19.75 13C21.5449 13 23 14.4551 23 16.25V19.75C23 21.5449 21.5449 23 19.75 23C17.9551 23 16.5 21.5449 16.5 19.75V16.25ZM19.75 14.5C18.7835 14.5 18 15.2835 18 16.25V19.75C18 20.7165 18.7835 21.5 19.75 21.5C20.7165 21.5 21.5 20.7165 21.5 19.75V16.25C21.5 15.2835 20.7165 14.5 19.75 14.5Z" fill="#212121"/>
</svg>

<svg xmlns="http://www.w3.org/2000/svg" width="24" height="24"><path d="M12 5a8.502 8.502 0 0 1 8.376 7.046A4.25 4.25 0 0 0 16 14.248v-.498a1.75 1.75 0 0 0-2.303-1.66l-.947.315V8.75l-.007-.102a.75.75 0 0 0-1.486 0l-.007.102v4.5l.006.089a1.75 1.75 0 0 0 1.244 2.644v6.002A8.5 8.5 0 1 1 12 5Zm7.17.123.082.061 1.149 1a.75.75 0 0 1-.904 1.193l-.081-.061-1.149-1a.75.75 0 0 1 .903-1.193ZM14.25 2.5a.75.75 0 0 1 .102 1.493L14.25 4h-4.5a.75.75 0 0 1-.102-1.493L9.75 2.5h4.5Zm.438 10.642a.75.75 0 0 1 .312.608v8.5a.75.75 0 0 1-1.5 0v-7.46l-.513.171a.75.75 0 0 1-.474-1.422l1.5-.5a.75.75 0 0 1 .675.103ZM16.5 16.25a3.25 3.25 0 0 1 6.5 0v3.5a3.25 3.25 0 0 1-6.5 0v-3.5Zm3.25-1.75A1.75 1.75 0 0 0 18 16.25v3.5a1.75 1.75 0 1 0 3.5 0v-3.5a1.75 1.75 0 0 0-1.75-1.75Z"/></svg>
